X: 1
T: \'O Malh\~ao Malh\~ao
O: Portugal
M: C
L: 1/8
K: C
   cc c3  B | "G"G8 | z2 BB B3 G | "C"c8 | z2 :|
|: EF G2 A2 | "G"G2 BB B2 A2 | G2 GF E2 D2 | "C"C8 | z2 :|
